16x16/panel/gpm-mouse-020.svg

<svg height="16" width="16" xmlns="http://www.w3.org/2000/svg"><path d="m2.5 0c-.476 0-.5.5-.5.5v.5h-2v14.5c0 .277.223.5.5.5h5a.5.5 0 0 0 .5-.5v-14.503l-.5.003h-1.5v-.5c0-.277-.223-.5-.5-.5z" fill="#ef2929" opacity=".35"/><path d="m11 2.998c-1.676.115-3 1.96-3 4v.002h3zm1 0v4.002h3v-.002c0-2.04-1.324-3.885-3-4zm-4 5.002v2.18c0 2.115 1.419 3.818 3.182 3.818h.636c1.763 0 3.182-1.703 3.182-3.818v-2.18z" fill="#bebebe"/><path d="m0 12.998v2.502c0 .277.223.5.5.5h5c.277 0 .5-.223.5-.5v-2.502z" fill="#ef2929"/></svg>

<svg height="16" width="16" xmlns="http://www.w3.org/2000/svg"><path d="M2.5 0c-.476 0-.5.5-.5.5V1H0v14.5c0 .277.223.5.5.5h5a.5.5 0 0 0 .5-.5V.997L5.5 1H4V.5c0-.277-.223-.5-.5-.5z" color="#bebebe" opacity=".35" fill="#ef2929"/><path d="M11 2.998c-1.676.115-3 1.96-3 4V7h3zm1 0V7h3v-.002c0-2.04-1.324-3.885-3-4zM8 8v2.18c0 2.115 1.419 3.818 3.182 3.818h.636c1.763 0 3.182-1.703 3.182-3.818V8z" fill="#bebebe"/><path d="M0 12.998V15.5c0 .277.223.5.5.5h5c.277 0 .5-.223.5-.5v-2.502z" color="#bebebe" fill="#ef2929"/></svg>
